X:4633
T:Nightingale, The
O:england
R:Jig
C:Sean Ryan
M:6/8
L:1/8
K:G
G|EAA A2B|cAB cAG|EDE GFG|G,B,D GED|
EAA A2B|cAB cde|f/g/af gfe|dBG A2G|
EAA A2B|{d}cAd {cd}cAG|~E3 ~G3|G,B,D GED|
EAA {d}A2B|{d}cAB cde|f/g/af {a}gfe|dBG A2a||
aea aef|gdg gdg|aea aef|gfe deg|
aea aef|geg gef|~g3 e/f/ge|dBG A2a|
{b}aea aef|gdg {a}gdg|aea aef|{a}gfe def|
g2e {a}fed|edB GBd|{a}gfg e/f/ge|dBG A2||
